X:46
T:Martha Campbell's
S:Bernie Waugh
R:Reel
M:2/4
L:1/16
K:D
|:\
"D"DEFA BF A2|DEFA BF A2|DEFA BFAA|BA2E- "A"E4|
"D"DEFA BF A2|DEFA BF A2|"G"ABde "Em"fedB|"A"AFE2 "D"D4:|
|:\
"G"ABde "F#m"fdfd|"Em"eded "A"ef3|"G"ABde "F#m"fdfd|"Em"edB2 "A"A4|
"G"ABde fdfd|"F#m"eded ef3|"Em"a4f3f|"A"efed BA3:|

